X:1
T: Drogheda Lasses
P:Kerr's version
R:Reel
Q: 232
K:D
M:4/4
L:1/8
|:B2 GB EB GB|A2 FA DA FA|B2 GB EB GB|eg fa ge dc|
B2 GB EB GB|A2 FA DA FA|B2 GB EB GB|eg fd e2 fg|
af df g2 ec|dB AG F2 D2|af df g2 fg|eg fd e2 fg|
af df g2 ec|dB AG F2 D2|EG FA GA Bd|eg fa ge dc:|
